packages/match-icons/twilio/svg/global-sim.svg

<svg fill="none" height="32" viewBox="0 0 32 32" width="32" xmlns="http://www.w3.org/2000/svg" xmlns:xlink="http://www.w3.org/1999/xlink"><clipPath id="a"><path d="m0 0h32v32h-32z"/></clipPath><g clip-path="url(#a)"><path clip-rule="evenodd" d="m21.3778 27.0507h4.577v-6.7551h-4.577zm4.7876-8.6142h-4.9992c-.9074 0-1.6464.7391-1.6464 1.6475v7.1783c0 .9084.739 1.6475 1.6464 1.6475h4.9992c.9084 0 1.6465-.7391 1.6465-1.6475v-7.1783c0-.9084-.7381-1.6475-1.6465-1.6475zm3.4034 10.6199c0 .4769-.3881.865-.865.865h-9.3317c-.4769 0-.866-.3881-.866-.865v-13.6382c0-.4759.3891-.864.866-.864l8.0795-.001c.0909.002.1765.0371.2436.0949l1.8044 1.8746c.0413.0403.0682.096.0692.1156zm1.857-12.4552c-.0217-.544-.2519-1.0509-.6173-1.3967l-1.7951-1.8653-.0309-.032c-.3985-.3757-.9187-.5925-1.4989-.6121h-8.1115c-1.5019 0-2.7241 1.2212-2.7241 2.7231v13.6382c0 1.5019 1.2222 2.7241 2.7241 2.7241h9.3317c1.5019 0 2.723-1.2222 2.723-2.7241zm-22.70656 3.4436h-4.91045c-.67097-1.697-.98994-3.5613-.94246-5.4307h5.44413c-.01858 1.824.12697 3.6377.40878 5.4307zm-3.53136-12.71949h3.85342c-.35613 1.68464-.59251 3.51169-.68232 5.42969h-5.32232c.14864-.9342.38193-1.856.71948-2.7376.37058-.96719.85987-1.86216 1.43174-2.69209zm5.19742-4.34478c-.3324.76181-.62761 1.59174-.88464 2.48568h-2.74684c1.04568-1.0209 2.26271-1.86839 3.63148-2.48568zm7.872-.8289c.5574 1.00439 1.0137 2.14813 1.375 3.31458h-8.1931c.4067-1.29652.9022-2.41961 1.4689-3.32594 1.7621-.38606 3.5789-.37574 5.3492.01136zm6.1585 3.31458h-2.8408c-.254-.88361-.5451-1.72697-.8702-2.50942 1.3894.61626 2.6426 1.46581 3.711 2.50942zm-10.6416 9.14789c.513 0 .929-.416.929-.9291 0-.513-.416-.93-.929-.93h-3.5572c.0971-1.9231.3438-3.76673.7206-5.42969h9.1953c.2168.94554.3768 1.85703.4718 2.65084.0567.47275.4572.81965.9218.81965.0361 0 .0733-.0021.1104-.0073.51-.0609.8733-.5233.8124-1.03223-.097-.81548-.2343-1.63096-.4046-2.43096h3.936c.64.9249 1.1767 1.93135 1.5597 3.01629.1693.4851.703.7391 1.184.5677.4841-.1703.7381-.6999.5677-1.18399-1.4193-4.03097-4.5109-7.22168-8.482-8.756649-.5513-.212645-1.1128-.379871-1.6764-.522322-.033-.010323-.065-.016517-.0991-.02271-2.272-.562581-4.6183-.564645-6.88-.008258-.0237.004129-.0454.013419-.0692.019613-.8062.202322-1.602.463484-2.37726.807226-3.55922 1.58142-6.28955 4.46142-7.68619 8.10942-1.633034 4.26527-1.289293 9.30687.89703 13.15927 1.50503 2.6508 4.5791 6.0335 10.67352 7.0947.0537.0082.1074.0134.16.0134.4429 0 .8362-.318.9146-.7701.0878-.5048-.2508-.9868-.7556-1.0746-4.11975-.7163-7.27536-2.7509-9.17575-5.8704h4.32c.18478.8516.39949 1.697.65239 2.5352.12078.4016.48926.6607.88876.6607.0888 0 .1796-.0124.2684-.0403.4914-.1476.7701-.6658.6204-1.1572-.1992-.6596-.3665-1.3285-.5213-1.9984h2.7871c.513 0 .929-.417.929-.9301 0-.513-.416-.929-.929-.929h-3.1463c-.2973-1.791-.4563-3.6026-.4367-5.4307z" fill="#394762" fill-rule="evenodd"/></g></svg>

<svg width="32" height="32" viewBox="0 0 32 32" fill="none" xmlns="http://www.w3.org/2000/svg">
<g clip-path="url(#clip0)">
<path fill-rule="evenodd" clip-rule="evenodd" d="M21.3778 27.0507H25.9548V20.2956H21.3778V27.0507ZM26.1654 18.4365H21.1662C20.2588 18.4365 19.5198 19.1756 19.5198 20.084V27.2623C19.5198 28.1707 20.2588 28.9098 21.1662 28.9098H26.1654C27.0738 28.9098 27.8119 28.1707 27.8119 27.2623V20.084C27.8119 19.1756 27.0738 18.4365 26.1654 18.4365ZM29.5688 29.0564C29.5688 29.5333 29.1807 29.9214 28.7038 29.9214H19.3721C18.8952 29.9214 18.5061 29.5333 18.5061 29.0564V15.4182C18.5061 14.9423 18.8952 14.5542 19.3721 14.5542L27.4516 14.5532C27.5425 14.5552 27.6281 14.5903 27.6952 14.6481L29.4996 16.5227C29.5409 16.563 29.5678 16.6187 29.5688 16.6383V29.0564ZM31.4258 16.6012C31.4041 16.0572 31.1739 15.5503 30.8085 15.2045L29.0134 13.3392L28.9825 13.3072C28.584 12.9315 28.0638 12.7147 27.4836 12.6951H19.3721C17.8702 12.6951 16.648 13.9163 16.648 15.4182V29.0564C16.648 30.5583 17.8702 31.7805 19.3721 31.7805H28.7038C30.2057 31.7805 31.4268 30.5583 31.4268 29.0564L31.4258 16.6012ZM8.71924 20.0448H3.80879C3.13782 18.3478 2.81885 16.4835 2.86633 14.6141H8.31046C8.29188 16.4381 8.43743 18.2518 8.71924 20.0448ZM5.18788 7.32531H9.0413C8.68517 9.00995 8.44879 10.837 8.35898 12.755H3.03666C3.1853 11.8208 3.41859 10.899 3.75614 10.0174C4.12672 9.05021 4.61601 8.15524 5.18788 7.32531ZM10.3853 2.98053C10.0529 3.74234 9.75769 4.57227 9.50066 5.46621H6.75382C7.7995 4.44531 9.01653 3.59782 10.3853 2.98053ZM18.2573 2.15163C18.8147 3.15602 19.271 4.29976 19.6323 5.46621H11.4392C11.8459 4.16969 12.3414 3.0466 12.9081 2.14027C14.6702 1.75421 16.487 1.76453 18.2573 2.15163ZM24.4158 5.46621H21.575C21.321 4.5826 21.0299 3.73924 20.7048 2.95679C22.0942 3.57305 23.3474 4.4226 24.4158 5.46621ZM13.7742 14.6141C14.2872 14.6141 14.7032 14.1981 14.7032 13.685C14.7032 13.172 14.2872 12.755 13.7742 12.755H10.217C10.3141 10.8319 10.5608 8.98827 10.9376 7.32531H20.1329C20.3497 8.27085 20.5097 9.18234 20.6047 9.97615C20.6614 10.4489 21.0619 10.7958 21.5265 10.7958C21.5626 10.7958 21.5998 10.7937 21.6369 10.7885C22.1469 10.7276 22.5102 10.2652 22.4493 9.75627C22.3523 8.94079 22.215 8.12531 22.0447 7.32531H25.9807C26.6207 8.25021 27.1574 9.25666 27.5404 10.3416C27.7097 10.8267 28.2434 11.0807 28.7244 10.9093C29.2085 10.739 29.4625 10.2094 29.2921 9.72531C27.8728 5.69434 24.7812 2.50363 20.8101 0.968661C20.2588 0.756016 19.6973 0.58879 19.1337 0.446339C19.1007 0.436016 19.0687 0.429822 19.0346 0.423629C16.7626 -0.138952 14.4163 -0.141016 12.1546 0.415371C12.1309 0.4195 12.1092 0.42879 12.0854 0.434984C11.2792 0.637306 10.4834 0.898468 9.70814 1.24221C6.14892 2.82363 3.41859 5.70363 2.02195 9.35163C0.388916 13.6169 0.732657 18.6585 2.91898 22.5109C4.42401 25.1617 7.49808 28.5444 13.5925 29.6056C13.6462 29.6138 13.6999 29.619 13.7525 29.619C14.1954 29.619 14.5887 29.301 14.6671 28.8489C14.7549 28.3441 14.4163 27.8621 13.9115 27.7743C9.79175 27.058 6.63614 25.0234 4.73575 21.9039H9.05575C9.24053 22.7555 9.45524 23.6009 9.70814 24.4391C9.82892 24.8407 10.1974 25.0998 10.5969 25.0998C10.6857 25.0998 10.7765 25.0874 10.8653 25.0595C11.3567 24.9119 11.6354 24.3937 11.4857 23.9023C11.2865 23.2427 11.1192 22.5738 10.9644 21.9039H13.7515C14.2645 21.9039 14.6805 21.4869 14.6805 20.9738C14.6805 20.4608 14.2645 20.0448 13.7515 20.0448H10.6052C10.3079 18.2538 10.1489 16.4422 10.1685 14.6141H13.7742Z" fill="#394762"/>
</g>
<defs>
<clipPath id="clip0">
<rect width="32" height="32" fill="white"/>
</clipPath>
</defs>
</svg>
